X:1
T:In the Service of My King
T:In the Service of My King
T:Tillit Sidney Teddlie
T:Tillit Sidney Teddlie, 1919
T:Public Domain Courtesy of the Cyber Hymnal™
T:Public Domain Courtesy of the Cyber Hymnal™
C:Tillit Sidney Teddlie
Z:Public Domain
Z:Courtesy of the Cyber Hymnal™
%%score ( 1 2 ) ( 3 4 )
L:1/8
Q:1/4=110
M:4/4
K:Ab
V:1 treble 
V:2 treble 
V:3 bass 
V:4 bass 
V:1
 [CE][CA] | [Ec]2 [Ec]2 [CA]2 A[=EB] | [FA]2 [DF]2 [CE]2 [CA][DB] | [Ec] [Ec]3 [EA]2 [Ec]2 | %4
w: 1.~To the|har- vest fields I will|glad- ly go, In the|ser- vice of my|
w: 2.~Let me|ev- er work with a|will- ing hand, In the|ser- vice of my|
w: 3.~Let me|win some soul that his|life may be In the|ser- vice of my|
w: 4.~Just a|kind- ly word or a|song of prayer, In the|blessèd service of my|
 [EB]6 [CE][CA] | [Ec]2 [Ec]2 [CA]2 [CA][=EB] | [FA]2 [DF]2 [CE]2 [EA][FB] | %7
w: king, With a|song of love to the|faint and low, In the|
w: king, Guid- ed|by His Word, heed- ing|each com- mand, In the|
w: king; Let me|sing some song that will|make me free, In the|
w: king, That the|lost may turn and His|glo- ry share, In the|
 [Ec] [Ec]3 [Ec]2 [DB]2 | [CA]6 ||"^Refrain" [CE][CA] | [Ec] [Ec]3 [FA]2 [DF]2 | [CE]6 [EA][Ec] | %12
w: ser- vice of my|king!||||
w: ser- vice of my|king!|In the|ser- vice of my|king, In the|
w: ser- vice of my|king!||||
w: blessèd service of my|king!||||
 [Ae] [Ae]3 [Ae]2 [Ec]2 | B6 !fermata![CE][CA] | [Ec]2 [Ec]2 [CA]2 [CA][=EB] | %15
w: |||
w: ser- vice of my|king! It is|glo- ry there, joy be-|
w: |||
w: |||
 [FA]2 [DF]2 [CE]2 [EA][FB] | [Ec] [Ec]3 [Ec]2 [DB]2 | [CA]6 |] %18
w: |||
w: yond com- pare, In the|ser- vice of my|king.|
w: |||
w: |||
V:2
 x2 | x6 C2 | x8 | x8 | x8 | x8 | x8 | x8 | x6 || x2 | x8 | x8 | x8 | (D2 =DF E2) x2 | x8 | x8 | %16
 x8 | x6 |] %18
V:3
 [A,,A,][A,,A,] | [A,,A,]2 [A,,A,]2 [A,,E,]2 [A,,E,][C,A,] | [D,A,]2 [F,A,]2 A,2 A,A, | %3
w: ~ ~|~ ~ ~ ~ ~|~ ~ ~ ~ ~|
 A,A,[E,A,][E,A,] [C,A,]2 [A,,A,]2 | [E,G,]6 [A,,A,][A,,A,] | %5
w: ~ ~ ~ ~ ~ ~|~ ~ ~|
 [A,,A,]2 [A,,A,]2 [A,,E,]2 [A,,E,][C,A,] | [D,A,]2 [D,A,]2 [A,,A,]2 [C,A,][D,A,] | %7
w: ~ ~ ~ ~ ~|~ ~ ~ ~ ~|
 [E,A,][E,A,][E,A,][E,A,] [E,A,]2 E,2 | [A,,E,]6 || [A,,A,][A,,A,] | %10
w: ~ ~ ~ ~ ~ ~|~|In the|
 [A,,A,][A,,A,][A,,A,][A,,A,] [D,A,]2 [D,A,]2 | %11
w: bless- èd ser- vice of my|
 [A,,A,][A,,A,] (3[C,A,]([C,A,][E,A,]) A,2 [A,C][A,E] | [A,C][A,C][E,C][E,C] [C,A,]2 [A,,A,]2 | %13
w: king, my heav’n- ly * king! In the|bless- èd ser- vice of my|
 [E,G,]2 [B,,F,][B,,A,] !fermata![E,G,]2 A,A, | A,2 A,2 [A,,E,]2 [A,,E,][C,A,] | %15
w: king, of my king! ~ ~|~ ~ ~ ~ ~|
 [D,A,]2 [F,A,]2 A,2 [C,A,][D,A,] | [E,A,][E,A,][E,A,][E,A,] [E,A,]2 E,2 | [A,,E,]6 |] %18
w: ~ ~ ~ In the|bless- èd ser- vice of my|king!|
V:4
 x2 | x8 | x4 A,2 A,A, | A,A, x6 | x8 | x8 | x8 | x6 E,2 | x6 || x2 | x8 | x4 A,2 x2 | x8 | %13
 x6 A,A, | A,2 A,2 x4 | x4 A,2 x2 | x6 E,2 | x6 |] %18

